wrench-cog-outline.svg

<svg fill="currentColor" viewBox="0 0 24 24"><path d="M9 1.09V6H7V1.09C4.16 1.57 2 4.03 2 7c0 2.22 1.21 4.15 3 5.19V21c0 .55.45 1 1 1h4c.55 0 1-.45 1-1v-8.81c1.79-1.04 3-2.97 3-5.19 0-2.97-2.16-5.43-5-5.91m1 9.37-1 .58V20H7v-8.96l-1-.58C4.77 9.74 4 8.42 4 7c0-1 .37-1.94 1-2.65V8h6V4.35c.63.71 1 1.65 1 2.65 0 1.42-.77 2.74-2 3.46m10.94 7.48a3.3 3.3 0 0 0 0-.89l.97-.73a.22.22 0 0 0 .06-.29l-.92-1.56c-.05-.1-.18-.14-.29-.1l-1.15.45c-.24-.17-.49-.32-.78-.44l-.17-1.19a.235.235 0 0 0-.23-.19h-1.85c-.12 0-.22.08-.24.19l-.17 1.19c-.29.12-.54.27-.78.44l-1.15-.45c-.1-.04-.24 0-.28.1l-.93 1.56c-.06.1-.03.22.06.29l.97.73c-.01.15-.03.3-.03.45s.02.29.03.44l-.97.74a.22.22 0 0 0-.06.29l.93 1.56c.04.1.18.13.28.1l1.15-.46c.24.18.49.33.78.45l.17 1.19c.02.11.12.19.24.19h1.85c.11 0 .21-.08.23-.19l.17-1.19c.29-.12.54-.27.78-.45l1.15.46c.11.03.24 0 .29-.1l.92-1.56a.22.22 0 0 0-.06-.29zM17.5 19c-.83 0-1.5-.67-1.5-1.5s.67-1.5 1.5-1.5 1.5.67 1.5 1.5-.67 1.5-1.5 1.5"/></svg>

<svg  viewBox="0 0 24 24" fill="currentColor"><path  d="M9 1.09V6H7V1.09C4.16 1.57 2 4.03 2 7C2 9.22 3.21 11.15 5 12.19V21C5 21.55 5.45 22 6 22H10C10.55 22 11 21.55 11 21V12.19C12.79 11.15 14 9.22 14 7C14 4.03 11.84 1.57 9 1.09M10 10.46L9 11.04V20H7V11.04L6 10.46C4.77 9.74 4 8.42 4 7C4 6 4.37 5.06 5 4.35V8H11V4.35C11.63 5.06 12 6 12 7C12 8.42 11.23 9.74 10 10.46M20.94 17.94C20.96 17.79 20.97 17.65 20.97 17.5S20.96 17.2 20.94 17.05L21.91 16.32C22 16.25 22.03 16.13 21.97 16.03L21.05 14.47C21 14.37 20.87 14.33 20.76 14.37L19.61 14.82C19.37 14.65 19.12 14.5 18.83 14.38L18.66 13.19C18.64 13.08 18.54 13 18.43 13H16.58C16.46 13 16.36 13.08 16.34 13.19L16.17 14.38C15.88 14.5 15.63 14.65 15.39 14.82L14.24 14.37C14.14 14.33 14 14.37 13.96 14.47L13.03 16.03C12.97 16.13 13 16.25 13.09 16.32L14.06 17.05C14.05 17.2 14.03 17.35 14.03 17.5S14.05 17.79 14.06 17.94L13.09 18.68C13 18.75 12.97 18.87 13.03 18.97L13.96 20.53C14 20.63 14.14 20.66 14.24 20.63L15.39 20.17C15.63 20.35 15.88 20.5 16.17 20.62L16.34 21.81C16.36 21.92 16.46 22 16.58 22H18.43C18.54 22 18.64 21.92 18.66 21.81L18.83 20.62C19.12 20.5 19.37 20.35 19.61 20.17L20.76 20.63C20.87 20.66 21 20.63 21.05 20.53L21.97 18.97C22.03 18.87 22 18.75 21.91 18.68L20.94 17.94M17.5 19C16.67 19 16 18.33 16 17.5S16.67 16 17.5 16 19 16.67 19 17.5 18.33 19 17.5 19Z"/></svg>
